X: 4228
T: PROTESTANT BOYS
R: Jig
%R: jig
B: James Kerr "Merry Melodies" v.4 p.25 #228
Z: 2016 John Chambers <jc:trillian.mit.edu>
M: 6/8
L: 1/8
K: A
|:\
ABA c2c | BcB d2d | ceA d2c | BAG A2E |\
ABA c2c | BcB d2d | ceA d2c | BAG A2 :|
|:\
a2e fe2 | a2e f2e | efg agf | edc B2e |\
fed cde | edc Bcd | ceA d2c | BAG A3 :|

%%sep 1 1 500
%%sep 1 1 500

